picto/train-left.svg

<svg class="color-immutable" width="24" height="24" viewBox="0 0 24 24" fill="none" xmlns="http://www.w3.org/2000/svg"><path d="M0 22.5V1.5C0 0.675 0.675 0 1.5 0H22.5C23.325 0 24 0.675 24 1.5V22.5C24 23.325 23.325 24 22.5 24H1.5C0.675 24 0 23.325 0 22.5Z" fill="#2D327D"/><path d="M3.28799 18.862C3.08099 18.862 2.91299 18.694 2.91299 18.487C2.91299 18.469 2.91399 18.451 2.91699 18.434L3.23599 16.198L7.12499 16.2V18.861H3.28799V18.862Z" fill="white"/><path d="M12.366 8.193H21V7.5H13.95L16.163 6L12 3.637L7.86201 6H7.83801L10.051 7.5H5.45401C4.89401 7.5 4.41901 7.912 4.34001 8.466L3.33701 15.488H21V11.776H12.366C12.164 11.776 12 11.612 12 11.41C12 11.208 12.164 11.044 12.366 11.044H21V10.35H12.366C12.164 10.35 12 10.186 12 9.984C12 9.782 12.164 9.618 12.366 9.618H21V8.925H12.366C12.164 8.925 12 8.761 12 8.559C12 8.357 12.164 8.193 12.366 8.193ZM7.35001 11.4C7.35001 11.607 7.18201 11.775 6.97501 11.775H5.02001C4.81301 11.775 4.64501 11.607 4.64501 11.4C4.64501 11.382 4.64601 11.364 4.64901 11.347L5.05401 8.516C5.08001 8.331 5.23801 8.194 5.42501 8.194H6.97601C7.18301 8.194 7.35101 8.362 7.35101 8.569V11.4H7.35001ZM11.32 7.5L9.19501 6.06L12.001 4.458L14.814 6.054L12.68 7.5H11.32Z" fill="white"/><path d="M16.209 18.021C16.209 16.965 15.352 16.109 14.296 16.109C13.241 16.109 12.384 16.966 12.384 18.021C12.384 19.077 13.241 19.934 14.296 19.934C15.352 19.933 16.209 19.077 16.209 18.021Z" fill="white"/><path d="M11.7 18.021C11.7 16.965 10.843 16.109 9.787 16.109C8.731 16.109 7.875 16.966 7.875 18.021C7.875 19.077 8.732 19.934 9.787 19.934C10.843 19.933 11.7 19.077 11.7 18.021Z" fill="white"/><path d="M3 3V3.375H21V3H3Z" fill="white"/><path d="M21 21V20.288H3V21H21Z" fill="white"/><path d="M21 16.313V16.2H16.875V18.862H21V16.313Z" fill="white"/></svg>

<svg class="color-immutable" width="24" height="24" viewBox="0 0 24 24" fill="none" xmlns="http://www.w3.org/2000/svg"><g clip-path="url(#a)"><path d="M0 22.5v-21C0 .675.675 0 1.5 0h21c.825 0 1.5.675 1.5 1.5v21c0 .825-.675 1.5-1.5 1.5h-21C.675 24 0 23.325 0 22.5Z" fill="#2D327D"/><path d="M3.288 18.862a.375.375 0 0 1-.371-.428l.319-2.236 3.889.002v2.661H3.288v.001ZM12.366 8.193H21V7.5h-7.05L16.163 6 12 3.637 7.862 6h-.024l2.213 1.5H5.454c-.56 0-1.035.412-1.114.966l-1.003 7.022H21v-3.712h-8.634a.366.366 0 0 1 0-.732H21v-.694h-8.634a.366.366 0 0 1 0-.732H21v-.693h-8.634a.366.366 0 0 1 0-.732ZM7.35 11.4a.375.375 0 0 1-.375.375H5.02a.375.375 0 0 1-.371-.428l.405-2.831a.374.374 0 0 1 .371-.322h1.551c.207 0 .375.168.375.375V11.4H7.35Zm3.97-3.9L9.195 6.06l2.806-1.602 2.813 1.596L12.68 7.5h-1.36ZM16.209 18.021a1.913 1.913 0 1 0-3.826.002 1.913 1.913 0 0 0 3.826-.002ZM11.7 18.021a1.913 1.913 0 1 0-3.826.002 1.913 1.913 0 0 0 3.826-.002ZM3 3v.375h18V3H3ZM21 21v-.712H3V21h18ZM21 16.313V16.2h-4.125v2.662H21v-2.549Z" fill="#fff"/></g><defs><clipPath id="a"><path fill="#fff" d="M0 0h24v24H0z"/></clipPath></defs></svg>
